X:1
T:Title
%%score 1 { 2 | 3 }
L:1/8
Q:1/4=83
M:6/8
K:G
V:1 treble nm="Grand Piano, Soprano"
V:2 bass nm="Choir Pad, Even the Waifs of the Street"
V:3 bass 
V:1
 dcB BAG | AGE D3 | DEF GFG | A^GB A3 | dcB BAG | ccc E3 | DEF GFG | ADA .G3 | %8
w: By~Fred~Welden * * * * *||||||||
 [DB][Dc][Dd] [=Fd]2 [Fd] | [Ec][EG][EA] [^DB]3 | [EA][CE][EA] [DG][B,D][DG] | %11
w: |||
 [CF][B,G][CA] [B,G]3- | [B,G]3 z3 |] %13
w: ||
V:2
 G,,B,B, B,,DD | C,CC G,,B,B, | G,,B,B, E,,B,B, | A,,^CC D,D=C | G,,B,B, B,,DD | C,CC C3 | %6
 D,B,B, D,B,B, | D,CC .B,3 | G,A,B, G,2 G, | G,G,E, F,3 | E,G,C B,G,B, | A,G,F, G,3- | G,3 z3 |] %13
V:3
 G,,,[D,G,][D,G,] B,,,[=F,G,][F,G,] | C,,[E,G,][E,G,] G,,,[D,G,][D,G,] | %2
 G,,,[D,G,][D,G,] z [E,G,][E,G,] | A,,,[E,A,][E,A,] D,,[F,A,][D,F,] | %4
 G,,,[D,G,][D,G,] B,,,[=F,G,][F,G,] | A,,,[E,G,][E,G,] [C,E,G,]3 | %6
 D,,[D,G,][D,G,] D,,[D,G,][D,G,] | D,,[F,A,][D,F,] .G,3 | z G,G, B,,2 B,, | C,C,C, B,,3 | %10
 C,C,C, D,D,D, | D,D,D, G,,3- | G,,3 z3 |] %13

